X: 10
T:Kitchen Girl
M:4/4
L:1/8
R:Reel
K:A Mix
a4 g4 | efed c2 cd | e2 f2 gaba | g2 e2 e2 eg | abaf gagg | efed cdef| g
2 d2 efed | [1 c2 A2 A2 eg:| [2 c2 A2 A2 A2   | ]
 AB=cA BAGB | ABAG EDEG| A2 AA =c2 d2 | e3 g e2 A2 | AB=cA BAGB | =c2 A2
 BA G2 | [1 A3 BA2 A2 :| [2 A3 B A4|



